src/icons/wallet-connect.svg

<svg viewBox="0 0 21 20" fill="none" xmlns="http://www.w3.org/2000/svg">
<path fill-rule="evenodd" clip-rule="evenodd" d="M4.57763 6.22451C7.84887 3.03193 13.1511 3.03193 16.4224 6.22452L16.8088 6.60159C17.0323 6.81962 17.0323 7.17488 16.8088 7.39291L15.487 8.68292C15.346 8.82045 15.1191 8.82044 14.9781 8.6829L14.4464 8.16397C12.2673 6.03733 8.73274 6.03734 6.55364 8.16397L5.98415 8.71971C5.84317 8.85725 5.61624 8.85722 5.47526 8.71969L4.15351 7.42971C3.93001 7.21167 3.93001 6.85641 4.15351 6.63838L4.57763 6.22451ZM2.64357 8.89225C2.42233 8.67627 2.0652 8.67627 1.84396 8.89225L0.667584 10.0403C0.444135 10.2583 0.444142 10.6136 0.667584 10.8316L5.97217 16.0085C6.19342 16.2245 6.55056 16.2245 6.77178 16.0085L10.5 12.37L14.2283 16.0085C14.4496 16.2245 14.8067 16.2245 15.0279 16.0085L20.3324 10.8317C20.5559 10.6137 20.5559 10.2584 20.3324 10.0404L19.156 8.89232C18.9348 8.67638 18.5776 8.67636 18.3564 8.89234L14.6281 12.5308L10.8997 8.89224C10.6785 8.67629 10.3213 8.67625 10.1001 8.89226L6.37192 12.5308L2.64357 8.89225Z" fill="currentColor"/>
</svg>

<svg viewBox="0 0 21 20" fill="none" xmlns="http://www.w3.org/2000/svg"><path fill-rule="evenodd" clip-rule="evenodd" d="M4.578 6.225c3.27-3.193 8.573-3.193 11.844 0l.387.377a.55.55 0 0 1 0 .79l-1.322 1.29a.365.365 0 0 1-.509 0l-.532-.518c-2.179-2.127-5.713-2.127-7.892 0l-.57.556a.365.365 0 0 1-.509 0L4.154 7.43a.55.55 0 0 1 0-.792l.424-.413zM2.644 8.892a.574.574 0 0 0-.8 0L.668 10.04a.55.55 0 0 0 0 .792l5.304 5.177a.574.574 0 0 0 .8 0L10.5 12.37l3.728 3.639a.574.574 0 0 0 .8 0l5.304-5.177a.55.55 0 0 0 0-.792l-1.176-1.148a.574.574 0 0 0-.8 0l-3.728 3.639L10.9 8.892a.574.574 0 0 0-.8 0l-3.728 3.639-3.728-3.639z" fill="currentColor"/></svg>
